public/icons/icon/tool-pencil.svg

<svg width="30" height="30" viewBox="0 0 30 30" fill="none" xmlns="http://www.w3.org/2000/svg">
<path d="M4.63636 23.1818L6.2348 19.4521C6.25985 19.3937 6.29584 19.3405 6.34082 19.2955L22.6364 3L27 7.36364L10.7045 23.6592C10.6595 23.7042 10.6063 23.7401 10.5479 23.7652L6.81818 25.3636M4.63636 23.1818L3 27L6.81818 25.3636M4.63636 23.1818L6.81818 25.3636" stroke="black" stroke-width="2" stroke-linecap="round" stroke-linejoin="round"/>
<path d="M3 27L4.71429 23L7 25.2857L3 27Z" fill="black"/>
</svg>

<svg xmlns="http://www.w3.org/2000/svg" width="30" height="30" fill="none"><path stroke="#000" stroke-linecap="round" stroke-linejoin="round" stroke-width="2" d="m4.636 23.182 1.599-3.73a.5.5 0 0 1 .106-.157L22.636 3 27 7.364 10.704 23.659a.501.501 0 0 1-.156.106l-3.73 1.599m-2.182-2.182L3 27l3.818-1.636m-2.182-2.182 2.182 2.182"/><path fill="#000" d="m3 27 1.714-4L7 25.286 3 27Z"/></svg>
